X: 41
T:Wild Rose of the Mountain, The
M:3/4
L:1/4
C:John Mason
R:Waltz
K:G
D|"G"G2 D|"D"A2 D|"G"B>cd|"C"e>fg|"G"d>ed|"Em"B2 G|"d"A3|A2 D|
"G"G2 D|"D"A2 D|"G"B>cd|"C"e>fg|"G"d>BG|"D7"A2B|"G"G3|G2:|
|:d|"G"dfg|"G"d2F|"D"A3|A2 d|
"G"dBG|"D7"A2B|"G"G3|G2 d|
"G"d<Bd|"Am"d<cd|"D"f2e/f/|"G"g2 f/e/|"Bm"d2e|"Em"d2B|"Am7"A3|A2 G/F/|
"C"E>FG|"D"F>GA|"G"B>cd|"C"e>fg|"G"d>BG|"D7"A2B|"G"G3|G2||
